X:102
T:Were You There?
%%stretchlast false
M:none
L:1/4
K:C clef=C1
G "^I¹"[EGc] "^I"[CGce]2 | [CGce] [CGce] "^V"[G,GBd] "^vi"[A,EAc] | "^iii¹"[G,GBe]3/2 "^V7"[G,FBd]/ "^I"[CEc]2 | [CEGc] [CGce] "^iii"[EGBg] "^V7²"[DFBg] | "^I"[CEcg] "^V¹"[B,Ddg] "^vi"[A,Eca] "^V¹"[B,Gdg] | "^I"[CGeg]3/2 "^I¹"[EGce]/ "^V"[GBd]4 | "^I¹"[EGcg] "^V7²"[DFBg] | "^I¹"[EGcc'] "^IV"[FAfc']/ [FAfa]/ "^iii¹"[GBeg] "^V7³"[FBdg] | "^I¹"[Ecg] "^V/IV¹"[E^Acg] "^IV"[FAca] "^I"[CEcg]2 | "^iii¹"[G,GBe] "^III¹"[^G,FBe]3/2 "^V7"[G,FBd]/ | "^vi"[A,EBc] [A,EAc]/ "^vi7³"[G,EAc]/ "^ii¹"[F,FAd] "^iv"[F,F^Gc]2 | [F,C^Gc] "^I¹"[E,CGc]2 | "^iv"[F,CFG] "^V"[G,B,DG]3 | "^IV¹"[A,CFc] "^IV"[F,CAf] "^I²"[G,CGe] [G,Ece] | "^vi7³"[G,Ace] "^iii¹"[G,GBe] "^V7"[G,FBd] "^vi"[A,Ec] | "^iii"[E,GBe]3/2 "^V7"[G,FBd]/ "^I²"[G,EGc]4 |]
